kora/actions/scalable/pane-hide.svg

<svg xmlns="http://www.w3.org/2000/svg" style="fill-rule:evenodd;clip-rule:evenodd;stroke-linejoin:round;stroke-miterlimit:2" width="100%" height="100%" version="1.1" viewBox="0 0 16 16" xml:space="preserve">
 <defs>
  <style id="current-color-scheme" type="text/css">
   .ColorScheme-Text { color:#dfdfdf; } .ColorScheme-Highlight { color:#4285f4; } .ColorScheme-NeutralText { color:#ff9800; } .ColorScheme-PositiveText { color:#4caf50; } .ColorScheme-NegativeText { color:#f44336; }
  </style>
 </defs>
 <path style="fill:currentColor;" class="ColorScheme-Text" d="M3,1l0,1.178l8.784,0l0,11.644l-8.784,-0l0,1.178l10,0l0,-14l-10,0Zm3,4l0,2l-4,0l0,2l4,0l0,2l4,-3l-4,-3Z"/>
</svg>

<svg xmlns="http://www.w3.org/2000/svg" width="16" height="16" version="1.1">
 <defs>
  <style id="current-color-scheme" type="text/css">
   .ColorScheme-Text { color:#dfdfdf; } .ColorScheme-Highlight { color:#4285f4; }
  </style>
 </defs>
 <path style="fill:currentColor" class="ColorScheme-Text" d="M 3,1 V 3 H 11 V 13 H 3 V 15 H 13 V 1 Z M 6,5 V 7 H 2 V 9 H 6 V 11 L 10,8 Z"/>
</svg>
